public/icons/Gulp.svg

<svg width="256" height="256" viewBox="0 0 256 256" fill="none" xmlns="http://www.w3.org/2000/svg">
<rect width="256" height="256" rx="60" fill="#D34A47"/>
<path d="M154.431 231.368L156.541 196.196L162.37 186.247C162.37 186.247 149.104 191.673 126.897 191.673C104.688 191.673 91.6241 186.347 91.6241 186.347L98.1559 197.2L100.467 231.368C100.467 235.031 112.547 238 127.449 238C142.35 238 154.431 235.031 154.431 231.368ZM147.772 67.121L152.203 49.6091L176.737 23.7929L170.271 18.2852L144.296 45.7858L139.152 66.7079C135.28 66.5782 131.407 66.5138 127.533 66.5146C100.177 66.5146 78 69.6324 78 73.4774C78 77.3228 100.177 80.4402 127.533 80.4402C154.889 80.4402 177.066 77.3228 177.066 73.4774C177.066 70.6459 165.038 68.2088 147.772 67.121Z" fill="white"/>
<path d="M145.195 76.9284C145.195 76.9284 144.236 77.1435 141.413 77.1555C138.59 77.1672 136.586 77.1373 135.787 76.4099C135.572 76.2147 135.455 75.8269 135.456 75.5644C135.458 75.0646 135.813 74.7702 136.265 74.5858L136.692 75.2563C136.507 75.3205 136.4 75.3964 136.4 75.4773C136.398 75.8569 139.287 76.1167 141.496 76.0887C143.705 76.0614 146.375 75.8794 146.377 75.5053C146.377 75.3921 146.176 75.2855 145.824 75.2015L146.25 74.5356C146.822 74.7134 147.322 75.0568 147.321 75.6511C147.316 76.6616 146.03 76.8152 145.195 76.9284Z" fill="white"/>
<path d="M176.689 23.8443C177.306 23.1318 176.37 21.3092 174.598 19.7741C172.826 18.2397 170.889 17.5731 170.271 18.2856C169.654 18.9981 170.59 20.8207 172.363 22.3551C174.134 23.8898 176.072 24.5572 176.689 23.8443ZM153.251 145.458C152.669 139.863 165.487 131.761 162.198 131.502C155.116 131.906 151.591 139.801 148.028 148.069C146.723 151.099 142.255 164.02 139.325 162.43C136.395 160.84 143.123 150.214 145.008 143.904C142.832 145.499 134.853 151.699 132.797 145.893C129.491 148.701 122.427 150.222 123.224 142.847C121.465 145.962 117.518 150.311 112.78 148.504C106.557 146.131 116.385 126.31 118.829 127.31C121.273 128.31 118.336 132.825 117.566 134.578C115.874 138.437 113.92 143.288 115.226 144.281C117.462 145.982 123.549 137.845 123.685 137.666C124.823 136.162 128.066 126.322 130.681 127.452C133.295 128.582 124.16 141.574 127.576 144.152C128.264 144.673 131.083 143.831 132.797 141.976C133.906 140.777 133.525 138.119 137.222 129.301C140.92 120.483 144.216 109.502 146.751 110.339C149.287 111.175 147.197 116.811 146.287 118.912C142.018 128.773 134.636 145.065 138.118 143.831C141.599 142.598 143.412 142.526 146.821 138.537C150.23 134.547 150.073 127.976 152.345 128.116C154.618 128.256 154.237 130.363 153.685 131.967C155.922 129.408 164.286 124.018 166.306 129.356C168.698 135.676 154.338 144.805 157.919 144.339C161.409 143.885 167.064 140.304 169.479 137.047L176.125 77.2961C176.125 77.2961 169.437 82.8306 126.89 82.8306C84.3421 82.8306 78.3462 77.4112 78.3462 77.4112L84.0045 131.95C87.0078 123.414 94.1398 106.148 105.382 106.727C110.495 106.991 117.322 116.838 111.474 117.172C108.999 117.312 108.748 112.257 105.817 111.514C103.702 110.978 100.757 112.698 98.8541 114.561C95.0589 118.275 86.8962 132.93 87.9747 140.236C89.3489 149.551 100.828 136.999 102.771 133.273C104.139 130.648 105.063 122.871 108.054 123.687C111.047 124.503 107.793 132.529 105.625 139.625C103.188 147.593 101.908 155.998 98.8541 155.032C95.8002 154.065 100.775 143.779 100.595 141.976C97.7242 144.625 92.4362 151.329 85.6711 148.011L89.1851 181.879C89.1851 181.879 98.5247 189.258 126.659 189.258C154.794 189.258 164.479 181.994 164.479 181.994L168.843 142.767C165.273 146.243 153.974 152.416 153.251 145.458Z" fill="white"/>
</svg>

<svg xmlns="http://www.w3.org/2000/svg" width="256" height="256" fill="none"><rect width="256" height="256" fill="#D34A47" rx="60"/><path fill="#fff" d="m154.431 231.368 2.11-35.172 5.829-9.949s-13.266 5.426-35.473 5.426c-22.209 0-35.273-5.326-35.273-5.326l6.532 10.853 2.311 34.168c0 3.663 12.08 6.632 26.982 6.632s26.982-2.969 26.982-6.632m-6.659-164.247 4.431-17.512 24.534-25.816-6.466-5.508-25.975 27.5-5.144 20.923a345 345 0 0 0-11.619-.193C100.177 66.515 78 69.632 78 73.477c0 3.846 22.177 6.963 49.533 6.963s49.533-3.117 49.533-6.963c0-2.831-12.028-5.268-29.294-6.356"/><path fill="#fff" d="M145.195 76.928s-.959.216-3.782.228c-2.823.011-4.827-.019-5.626-.746-.215-.195-.332-.583-.331-.846.002-.5.357-.794.809-.978l.427.67c-.185.064-.292.14-.292.221-.002.38 2.887.64 5.096.612s4.879-.21 4.881-.584c0-.113-.201-.22-.553-.303l.426-.666c.572.177 1.072.52 1.071 1.115-.005 1.01-1.291 1.164-2.126 1.277M176.689 23.844c.617-.712-.319-2.535-2.091-4.07-1.772-1.534-3.709-2.2-4.327-1.488s.319 2.535 2.092 4.07c1.771 1.534 3.709 2.201 4.326 1.488m-23.438 121.614c-.582-5.595 12.236-13.697 8.947-13.956-7.082.404-10.607 8.299-14.17 16.567-1.305 3.03-5.773 15.951-8.703 14.361s3.798-12.216 5.683-18.526c-2.176 1.595-10.155 7.795-12.211 1.989-3.306 2.808-10.37 4.329-9.573-3.046-1.759 3.115-5.706 7.464-10.444 5.657-6.223-2.373 3.605-22.194 6.049-21.194s-.493 5.515-1.263 7.268c-1.692 3.859-3.646 8.71-2.34 9.703 2.236 1.701 8.323-6.436 8.459-6.615 1.138-1.504 4.381-11.344 6.996-10.214 2.614 1.13-6.521 14.122-3.105 16.7.688.521 3.507-.321 5.221-2.176 1.109-1.199.728-3.857 4.425-12.675s6.994-19.799 9.529-18.962.446 6.472-.464 8.573c-4.269 9.861-11.651 26.153-8.169 24.919s5.294-1.305 8.703-5.294c3.409-3.99 3.252-10.561 5.524-10.421s1.892 2.247 1.34 3.851c2.237-2.559 10.601-7.949 12.621-2.611 2.392 6.32-11.968 15.449-8.387 14.983 3.49-.454 9.145-4.035 11.56-7.292l6.646-59.75s-6.688 5.534-49.235 5.534c-42.548 0-48.544-5.42-48.544-5.42l5.658 54.539c3.004-8.536 10.136-25.802 21.378-25.223 5.113.264 11.94 10.111 6.092 10.445-2.475.14-2.726-4.915-5.657-5.658-2.115-.536-5.06 1.184-6.963 3.047-3.795 3.714-11.958 18.369-10.88 25.675 1.375 9.315 12.854-3.237 14.797-6.963 1.368-2.625 2.292-10.402 5.283-9.586 2.993.816-.261 8.842-2.429 15.938-2.437 7.968-3.717 16.373-6.77 15.407-3.055-.967 1.92-11.253 1.74-13.056-2.87 2.649-8.159 9.353-14.924 6.035l3.514 33.868s9.34 7.379 37.474 7.379c28.135 0 37.82-7.264 37.82-7.264l4.364-39.227c-3.57 3.476-14.869 9.649-15.592 2.691"/></svg>
